festivallovers/public/icons/socialmedia_youtube.svg

<?xml version="1.0" encoding="UTF-8" standalone="no"?>
<svg width="24px" height="17px" viewBox="0 0 24 17" version="1.1" xmlns="http://www.w3.org/2000/svg" xmlns:xlink="http://www.w3.org/1999/xlink">
    <!-- Generator: Sketch 39.1 (31720) - http://www.bohemiancoding.com/sketch -->
    <title>socialmedia_youtube</title>
    <desc>Created with Sketch.</desc>
    <defs></defs>
    <g id="Icons" stroke="none" stroke-width="1" fill="none" fill-rule="evenodd">
        <g id="socialmedia_youtube" transform="translate(-12.000000, -15.000000)" fill="#000000">
            <g transform="translate(12.000000, 15.000000)" id="youtube">
                <path d="M23.0645419,1.52090323 C22.1982194,0.491070968 20.5987355,0.0709935484 17.5440774,0.0709935484 L6.45569032,0.0709935484 C3.33112258,0.0709935484 1.70454194,0.518167742 0.841470968,1.61458065 C0,2.6835871 0,4.25868387 0,6.43865806 L0,10.5936774 C0,14.8169806 0.9984,16.9612645 6.45569032,16.9612645 L17.5441548,16.9612645 C20.1931355,16.9612645 21.6610065,16.5905806 22.6106323,15.6817548 C23.5844903,14.7497806 24,13.2281032 24,10.5936774 L24,6.43865806 C24,4.13969032 23.9348903,2.55530323 23.0645419,1.52090323 L23.0645419,1.52090323 Z M15.4080774,9.08980645 L10.3728774,11.7213677 C10.2603097,11.7802065 10.1372129,11.8093935 10.014271,11.8093935 C9.87507097,11.8093935 9.73618065,11.7719226 9.61316129,11.6974452 C9.38152258,11.5570839 9.24007742,11.3060129 9.24007742,11.0352 L9.24007742,5.78895484 C9.24007742,5.51860645 9.38113548,5.26776774 9.61230968,5.12732903 C9.84356129,4.98689032 10.1311742,4.97729032 10.3710968,5.10193548 L15.4062968,7.71654194 C15.6624774,7.84954839 15.8233548,8.1140129 15.8237419,8.40255484 C15.8240516,8.69132903 15.663871,8.95618065 15.4080774,9.08980645 L15.4080774,9.08980645 Z"></path>
            </g>
        </g>
    </g>
</svg>

<?xml version="1.0" encoding="utf-8"?>
<!-- Generator: Adobe Illustrator 22.1.0, SVG Export Plug-In . SVG Version: 6.00 Build 0)  -->
<svg version="1.1" id="Ebene_1" xmlns="http://www.w3.org/2000/svg" xmlns:xlink="http://www.w3.org/1999/xlink" x="0px" y="0px"
	 viewBox="0 0 24 17" style="enable-background:new 0 0 24 17;" xml:space="preserve">
<style type="text/css">
	.st0{fill:#767676;}
</style>
<title>socialmedia_youtube</title>
<desc>Created with Sketch.</desc>
<g id="Icons">
	<g id="socialmedia_youtube" transform="translate(-12.000000, -15.000000)">
		<g id="youtube" transform="translate(12.000000, 15.000000)">
			<path class="st0" d="M23.1,1.5c-0.9-1-2.5-1.4-5.5-1.4H6.5c-3.1,0-4.8,0.4-5.6,1.5C0,2.7,0,4.3,0,6.4v4.2C0,14.8,1,17,6.5,17
				h11.1c2.6,0,4.1-0.4,5.1-1.3c1-0.9,1.4-2.5,1.4-5.1V6.4C24,4.1,23.9,2.6,23.1,1.5L23.1,1.5z M15.4,9.1l-5,2.6
				c-0.1,0.1-0.2,0.1-0.4,0.1c-0.1,0-0.3,0-0.4-0.1c-0.2-0.1-0.4-0.4-0.4-0.7V5.8c0-0.3,0.1-0.5,0.4-0.7c0.2-0.1,0.5-0.2,0.8,0
				l5,2.6c0.3,0.1,0.4,0.4,0.4,0.7C15.8,8.7,15.7,9,15.4,9.1L15.4,9.1z"/>
		</g>
	</g>
</g>
</svg>
